X:133
T:Wind That Shakes the Barley, The
C:D Major
Q:1/4=210
R:Reel
M:4/4
L:1/8
K:D
|"D"A3B AFED|"G"B2BA BcdB|"D"A2AB AFED|"G"gfed "A"BcdB|
|"D"A3B AFED|"G"B2BA BcdB|"D"A2AB AFED|"G"gfed "A"Bcde||
|"D"f2fd "G"g2ga|"D"fgfd "A"Bcde|"D"f2fd "G"g2fg|"D"afed "G"Bcde|
|"D"f2fd "G"g2ge|"D"fgfd "A"BcdA|"D"defg "Bm"afbf|"G"gfed "A"BcdB||

